X:1458
T:Billy Brocker's
R:reel
D:Tommy Keane: The Piper's Apron
D:Bothy Band: Old Hag You've Killed Me
Z:id:hn-reel-417
M:C|
K:D
AF~F2 AFdB|AF~F2 ~G3B|AF~F2 ABdf|1 efge fedB:|2 efge fddc||
|:d2de faaf|eA{c}BA eA{c}BA|1 dcde faaf|gfeg fddc:|2 ~f3a g2fg|afge fedB||


